X:5
T:Nightingale.Instr:Flute
C:Achazia Songweaver.
c:2008
N:Flute
Q:1/4=90
V:1
M:4/4
L:1/8
K:C
z8 |z8 |z10922/4096- z5461/4096- z C D2 |E2 G4 E2 |D2 E E4 E |F2 EF D2 CD |E4 z C D2 |E2 G4 E2 |D2 E E4 E |F2 EF D2 CD |E4 z A AA |A2 E4 c2 |B2 A G2 E2 F |z2 EF D2 CD |E2 G2 FE DC- |C4 B,C B,A,- |A,4 A,B, CC-|
CD D2 C2 DD-|DE E6 |E2 G2 A2 c2 |A4 AB cc-|cd d2 c2 BB-|Bc A6 |E4 G2 A2 |A4 AG EE-|ED D2 DE D2 |E8- |E6 G2 |A4 AB cc-|cd d2 c2 B2-|BA [E6A6] |[D2G2] [E4A4] z2 |z8 |z10922/4096- z5461/4096- z C D2 |E2 G4 E2 |
D2 E E4 E |F2 EF D2 CD |E4 z C D2 |E2 G4 E2 |D2 E E4 E |F2 EF D2 CD |E4 z A AA |A2 E4 c2 |B2 A G2 E2 F |z2 EF D2 CD |E2 G2 FE DC- |C4 B,C B,A,- |A,4 A,B, CC-|CD D2 C2 DD-|DE E6 |E2 G2 A2 c2 |A4 AB cc-|
cd d2 c2 BB-|Bc A6 |E4 G2 A2 |A4 AG EE-|ED D2 DE D2 |E8- |E6 G2 |A4 AB cc-|cd d2 c2 B2-|BA [E6A6c6] |[D2G2B2] [A4E6] z2 |[D2G2] [C4F4] D2- |D2 E6- |E4 z4 |]
